icons/database-line.svg

<svg viewBox="0 0 24 24" fill="currentColor" xmlns="http://www.w3.org/2000/svg"><path d="M11 19V9H4V19H11ZM11 7V4C11 3.44772 11.4477 3 12 3H21C21.5523 3 22 3.44772 22 4V20C22 20.5523 21.5523 21 21 21H3C2.44772 21 2 20.5523 2 20V8C2 7.44772 2.44772 7 3 7H11ZM13 5V19H20V5H13ZM5 16H10V18H5V16ZM14 16H19V18H14V16ZM14 13H19V15H14V13ZM14 10H19V12H14V10ZM5 13H10V15H5V13Z"/></svg>

<svg xmlns="http://www.w3.org/2000/svg" viewBox="0 0 24 24">
    <g>
        <path fill="none" d="M0 0h24v24H0z"/>
        <path d="M11 19V9H4v10h7zm0-12V4a1 1 0 0 1 1-1h9a1 1 0 0 1 1 1v16a1 1 0 0 1-1 1H3a1 1 0 0 1-1-1V8a1 1 0 0 1 1-1h8zm2-2v14h7V5h-7zM5 16h5v2H5v-2zm9 0h5v2h-5v-2zm0-3h5v2h-5v-2zm0-3h5v2h-5v-2zm-9 3h5v2H5v-2z"/>
    </g>
</svg>
